Yaru++/apps/scalable/dvdstyler.svg

<svg height="256" viewBox="0 0 67.73 67.73" width="256" xmlns="http://www.w3.org/2000/svg" xmlns:xlink="http://www.w3.org/1999/xlink">
  <filter id="filter11191" color-interpolation-filters="sRGB" height="1.024" width="1.024" x="-.012" y="-.012">
    <feGaussianBlur stdDeviation="1.12"/>
  </filter>
  <filter id="filter11210" color-interpolation-filters="sRGB" height="1.096" width="1.096" x="-.048" y="-.048">
    <feGaussianBlur stdDeviation="4.48"/>
  </filter>
  <linearGradient id="linearGradient1022" gradientUnits="userSpaceOnUse" x1="105.679" x2="82.277" y1="-29.099001" y2=".224">
    <stop offset="0" stop-color="#e9b96e"/>
    <stop offset="1" stop-color="#dc9321"/>
  </linearGradient>
  <circle cx="122.752" cy="122.752" filter="url(#filter11210)" opacity=".3" r="112" transform="matrix(.26457031 0 0 .26457031 1.322852 1.454082)"/>
  <circle cx="122.752" cy="120.75198" filter="url(#filter11191)" opacity=".1" r="112" transform="matrix(.26457031 0 0 .26457031 1.322852 1.454082)"/>
  <circle cx="33.799385" cy="32.872284" opacity=".1" r="30.161015"/>
  <circle cx="33.799385" cy="32.872284" fill="#bb89bd" r="29.631874"/>
  <path d="m33.799387 3.2404611a29.631875 29.631875 0 0 0 -29.6318752 29.6318759h29.6318752zm0 29.6318759v29.631875a29.631875 29.631875 0 0 0 29.631875-29.631875z" fill="#fff" opacity=".2"/>
  <path d="m54.752287 11.919437a29.631875 29.631875 0 0 0 -41.9058 0l20.9529 20.9529zm-20.9529 20.9529-20.9529 20.9529a29.631875 29.631875 0 0 0 41.9058 0z" opacity=".02"/>
  <path d="m25.716383 4.3646501a29.631875 29.631875 0 0 0 -.538049.182153 29.631875 29.631875 0 0 1 1.432934-.388233 29.631875 29.631875 0 0 0 -.894885.20608zm2.333415-.537501a29.631875 29.631875 0 0 1 1.459703-.242406 29.631875 29.631875 0 0 0 -1.459703.242406zm-4.269879 1.192792a29.631875 29.631875 0 0 0 -1.385568.529078 29.631875 29.631875 0 0 1 1.385568-.529078zm7.201503-1.62203a29.631875 29.631875 0 0 1 1.470699-.09556 29.631875 29.631875 0 0 0 -1.470699.09556zm-9.929668 2.7606849a29.631875 29.631875 0 0 0 -1.331844.667682 29.631875 29.631875 0 0 1 1.331844-.667682zm12.886178-2.8954039a29.631875 29.631875 0 0 1 1.477831.05285 29.631875 29.631875 0 0 0 -1.477831-.05285zm-15.486769 4.3005269a29.631875 29.631875 0 0 0 -1.26009.797712 29.631875 29.631875 0 0 1 1.26009-.797712zm18.437477-4.1394599a29.631875 29.631875 0 0 1 1.469153.200155 29.631875 29.631875 0 0 0 -1.469153-.200155zm-20.887645 5.7985101a29.631875 29.631875 0 0 0 -1.174298.9202358 29.631875 29.631875 0 0 1 1.174298-.9202358zm23.817367-5.3424031a29.631875 29.631875 0 0 1 1.431579.343431 29.631875 29.631875 0 0 0 -1.431579-.343431zm-26.516511 7.6175769a29.631875 29.631875 0 0 0 -.336047.313125 29.631875 29.631875 0 0 1 .336047-.313125zm-.443389.429622a29.631875 29.631875 0 0 0 -4.7175592 6.128526l25.6617462 14.815817zm20.944187 20.944343 20.944188 20.944341a29.631875 29.631875 0 0 0 4.717558-6.128525zm8.878977-28.2463979a29.631875 29.631875 0 0 1 1.393106.485341 29.631875 29.631875 0 0 0 -1.393106-.485341zm2.773996 1.026918a29.631875 29.631875 0 0 1 1.344573.6256669 29.631875 29.631875 0 0 0 -1.344573-.6256669zm2.659249 1.2994679a29.631875 29.631875 0 0 1 .486056.2886421l.01754-.03038a29.631875 29.631875 0 0 0 -.503593-.258264zm-29.1105 51.55138-.01754.03038a29.631875 29.631875 0 0 0 .503595.258263 29.631875 29.631875 0 0 1 -.486056-.288641zm1.800732.962441a29.631875 29.631875 0 0 0 1.344576.625669 29.631875 29.631875 0 0 1 -1.344576-.625669zm2.725466 1.167244a29.631875 29.631875 0 0 0 1.393103.485341 29.631875 29.631875 0 0 1 -1.393103-.485341zm31.108926-6.700216a29.631875 29.631875 0 0 1 -.336049.313124 29.631875 29.631875 0 0 0 .336049-.313124zm-28.284138 7.587273a29.631875 29.631875 0 0 0 1.43158.343431 29.631875 29.631875 0 0 1 -1.43158-.343431zm26.423243-5.919208a29.631875 29.631875 0 0 1 -1.174295.920234 29.631875 29.631875 0 0 0 1.174295-.920234zm-23.531095 6.51859a29.631875 29.631875 0 0 0 1.469154.200155 29.631875 29.631875 0 0 1 -1.469154-.200155zm21.16672-4.737018a29.631875 29.631875 0 0 1 -1.26009.797714 29.631875 29.631875 0 0 0 1.26009-.797714zm-18.22469 5.045385a29.631875 29.631875 0 0 0 1.477831.05286 29.631875 29.631875 0 0 1 -1.477831-.05286zm15.695853-3.510232a29.631875 29.631875 0 0 1 -1.331844.667683 29.631875 29.631875 0 0 0 1.331844-.667683zm-12.732211 3.523929a29.631875 29.631875 0 0 0 1.470699-.09556 29.631875 29.631875 0 0 1 -1.470699.09556zm10.05777-2.246671a29.631875 29.631875 0 0 1 -1.385567.529077 29.631875 29.631875 0 0 0 1.385567-.529077zm-7.11515 1.964276a29.631875 29.631875 0 0 0 1.459703-.242404 29.631875 29.631875 0 0 1 -1.459703.242404zm4.331167-.962057a29.631875 29.631875 0 0 1 -1.432934.388231 29.631875 29.631875 0 0 0 1.432934-.388231z" fill="#faf8f6"/>
  <circle cx="33.799385" cy="-32.872288" fill="#aea795" r="10.582812" transform="scale(1 -1)"/>
  <circle cx="33.799385" cy="32.872288" fill="#faf8f6" r="9.524531"/>
  <circle cx="33.799385" cy="32.872288" fill="#4d4d4d" r="3.703984"/>
  <path d="m33.799387 3.2404601a29.631875 29.631875 0 0 0 -29.6318752 29.6318739 29.631875 29.631875 0 0 0 .010853.309526 29.631875 29.631875 0 0 1 29.6210222-29.4122599 29.631875 29.631875 0 0 1 29.621022 29.3223489 29.631875 29.631875 0 0 0 .010848-.219615 29.631875 29.631875 0 0 0 -29.631875-29.6318739z" fill="#fff" opacity=".3"/>
  <path d="m33.799387 62.504209a29.631875 29.631875 0 0 1 -29.6318752-29.631875 29.631875 29.631875 0 0 1 .010853-.309526 29.631875 29.631875 0 0 0 29.6210222 29.41226 29.631875 29.631875 0 0 0 29.621022-29.322348 29.631875 29.631875 0 0 1 .01085.219614 29.631875 29.631875 0 0 1 -29.631875 29.631875z" opacity=".2"/>
  <g enable-background="new" transform="matrix(0 .28681636 -.28681636 0 40.938694 1.117477)">
    <path d="m140.01675 6.5100464c1.24777.623882 24.33137 23.7074866 24.33137 23.7074866l2.18358 2.807468s-9.35822 13.725379-10.91792 12.477625c-1.55971-1.247764-30.88211-22.147783-30.88211-22.147783-4.24653-8.481983 7.30245-20.7103926 15.28508-16.8447966z" opacity=".2"/>
    <path d="m13.69356-89.725165c13.986231 8.31101 39.421867 24.17501 39.421867 24.17501s26.156865 15.820162 34.405812 21.011233c8.24894 5.191072 9.392093 5.644702 16.303161 9.824141 6.91104 4.17944 15.28097 10.805214 15.28097 10.805214s8.47882 7.468247 11.0763 10.551886c2.59747 3.083637 4.83475 6.0007954 6.47247 9.1693334 1.63773 3.168537 3.72226 9.453223 3.72226 9.453223l-10.66866 18.4333636s-3.83161 1.076365-8.64492.415522c-4.81331-.660853-11.83141-4.060453-16.73831-6.695895-4.906912-2.635442-7.245337-4.125816-12.657501-8.67623-5.412164-4.5504146-10.691469-10.2589646-19.330477-19.077155-3.989299-4.072038-10.974613-12.072009-17.748843-19.298666-7.895683-8.423009-15.367876-15.863835-15.367876-15.863835s-21.80684-22.440785-32.568011-34.710535c-3.923693-5.96336 1.608841-11.4868 7.041758-9.51661z" fill="#180000" opacity=".2"/>
    <path d="m11.774242-87.805843c13.98623 8.31101 39.421866 24.17501 39.421866 24.17501s26.156866 15.82016 34.405813 21.011229c8.248941 5.191072 9.392088 5.644702 16.303149 9.824142 6.91105 4.179439 15.28097 10.805212 15.28097 10.805212s8.47883 7.468248 11.0763 10.551887c2.59748 3.0836374 4.83475 6.0007954 6.47248 9.1693324 1.63773 3.16853798 3.72225 9.453222 3.72225 9.453222l-10.66866 18.4333646s-3.83161 1.076365-8.64492.415521c-4.81331-.660853-11.8314-4.060452-16.73831-6.695894-4.906899-2.635442-7.245325-4.125816-12.657489-8.676231-5.412164-4.5504136-10.691469-10.25896362-19.330477-19.0771536-3.9893-4.0720384-10.974614-12.0720094-17.748842-19.2986664-7.895684-8.423009-15.367876-15.863835-15.367876-15.863835s-21.806841-22.44078-32.568012-34.71054c-3.923693-5.96335 1.608841-11.4868 7.041758-9.5166z" fill="url(#linearGradient1022)"/>
    <path d="m138.45707 7.1841914c1.24777.623891 24.33137 23.7074866 24.33137 23.7074866l2.18359 2.807468s-9.35823 13.725389-10.91792 12.477625c-1.55971-1.247763-30.88212-22.147782-30.88212-22.147782-4.24654-8.481975 7.30246-20.7103906 15.28508-16.8447976z" fill="#bfbebf"/>
    <path d="m165.96406 84.864909c2.55754-5.013192 1.57537-10.530626-3.07275-17.261554-8.66075-12.541587-10.40618-16.034168-10.71247-21.435541-.30193-5.324303 3.88562-11.938958 9.31015-14.706346 10.80072-5.510119 24.6371 7.464922 24.6371 23.103419 0 11.605792-6.2077 22.195168-18.29439 31.207388-3.1568 2.353803-3.45697 2.207966-1.86764-.907366z" fill="#985e05"/>
  </g>
</svg>

<?xml version="1.0" encoding="UTF-8" standalone="no"?>
<svg
   xmlns:dc="http://purl.org/dc/elements/1.1/"
   xmlns:cc="http://creativecommons.org/ns#"
   xmlns:rdf="http://www.w3.org/1999/02/22-rdf-syntax-ns#"
   xmlns:svg="http://www.w3.org/2000/svg"
   xmlns="http://www.w3.org/2000/svg"
   xmlns:xlink="http://www.w3.org/1999/xlink"
   xmlns:sodipodi="http://sodipodi.sourceforge.net/DTD/sodipodi-0.dtd"
   xmlns:inkscape="http://www.inkscape.org/namespaces/inkscape"
   width="256"
   height="256"
   version="1.1"
   viewBox="0 0 67.73 67.73"
   id="svg44"
   sodipodi:docname="dvdstyler.svg"
   inkscape:version="0.92.3 (2405546, 2018-03-11)">
  <metadata
     id="metadata48">
    <rdf:RDF>
      <cc:Work
         rdf:about="">
        <dc:format>image/svg+xml</dc:format>
        <dc:type
           rdf:resource="http://purl.org/dc/dcmitype/StillImage" />
        <dc:title></dc:title>
      </cc:Work>
    </rdf:RDF>
  </metadata>
  <sodipodi:namedview
     pagecolor="#ffffff"
     bordercolor="#666666"
     borderopacity="1"
     objecttolerance="10"
     gridtolerance="10"
     guidetolerance="10"
     inkscape:pageopacity="0"
     inkscape:pageshadow="2"
     inkscape:window-width="1920"
     inkscape:window-height="1009"
     id="namedview46"
     showgrid="false"
     inkscape:zoom="3.2617188"
     inkscape:cx="135.70942"
     inkscape:cy="128"
     inkscape:window-x="0"
     inkscape:window-y="34"
     inkscape:window-maximized="1"
     inkscape:current-layer="svg44" />
  <defs
     id="defs20">
    <radialGradient
       id="radialGradient971"
       cx="152"
       cy="228.005"
       r="88"
       gradientTransform="matrix(.34811542 5.4590196e-8 -5.4663176e-8 .32490771 -18.793185 208.75322)"
       gradientUnits="userSpaceOnUse">
      <stop
         style="stop-color:#ffffff;stop-opacity:0"
         offset="0"
         id="stop2" />
      <stop
         style="stop-color:#ffffff"
         offset="1"
         id="stop4" />
    </radialGradient>
    <radialGradient
       id="radialGradient893"
       cx="340"
       cy="210.56"
       r="5.5"
       gradientTransform="matrix(7.4264632,-1.2863223e-5,1.2863218e-5,7.4264601,-2490.8795,-1287.0045)"
       gradientUnits="userSpaceOnUse">
      <stop
         style="stop-color:#cccccc"
         offset="0"
         id="stop7" />
      <stop
         style="stop-color:#b3b3b3"
         offset=".628"
         id="stop9" />
      <stop
         style="stop-color:#e6e6e6"
         offset="1"
         id="stop11" />
    </radialGradient>
    <filter
       id="filter935"
       width="1.028"
       height="1.021"
       x="-.01"
       y="-.01"
       style="color-interpolation-filters:sRGB">
      <feGaussianBlur
         stdDeviation="1.041"
         id="feGaussianBlur14" />
    </filter>
    <filter
       id="filter941"
       width="1.142"
       height="1.104"
       x="-.07"
       y="-.05"
       style="color-interpolation-filters:sRGB">
      <feGaussianBlur
         stdDeviation="5.204"
         id="feGaussianBlur17" />
    </filter>
    <filter
       inkscape:collect="always"
       style="color-interpolation-filters:sRGB"
       id="filter11191"
       x="-0.012"
       width="1.024"
       y="-0.012"
       height="1.024">
      <feGaussianBlur
         inkscape:collect="always"
         stdDeviation="1.12"
         id="feGaussianBlur11193" />
    </filter>
    <filter
       inkscape:collect="always"
       style="color-interpolation-filters:sRGB"
       id="filter11210"
       x="-0.048"
       width="1.096"
       y="-0.048"
       height="1.096">
      <feGaussianBlur
         inkscape:collect="always"
         stdDeviation="4.48"
         id="feGaussianBlur11212" />
    </filter>
    <linearGradient
       id="linearGradient1022"
       x1="105.679"
       x2="82.277"
       y1="-29.099001"
       y2="0.22400001"
       gradientUnits="userSpaceOnUse"
       xlink:href="#linearGradient27905" />
    <linearGradient
       id="linearGradient27905">
      <stop
         style="stop-color:#e9b96e"
         id="stop27901"
         offset="0" />
      <stop
         style="stop-color:#dc9321"
         id="stop27903"
         offset="1" />
    </linearGradient>
  </defs>
  <circle
     style="display:inline;opacity:0.3;fill:#000000;fill-opacity:1;stroke:none;stroke-width:1;stroke-linecap:round;stroke-linejoin:round;stroke-miterlimit:4;stroke-dasharray:none;stroke-opacity:1;filter:url(#filter11210);enable-background:new"
     id="path11042-0"
     r="112"
     cy="122.752"
     cx="122.752"
     transform="matrix(0.26457031,0,0,0.26457031,1.3228519,1.454082)" />
  <circle
     style="display:inline;opacity:0.1;fill:#000000;fill-opacity:1;stroke:none;stroke-width:1;stroke-linecap:round;stroke-linejoin:round;stroke-miterlimit:4;stroke-dasharray:none;stroke-opacity:1;filter:url(#filter11191);enable-background:new"
     id="path11042-6"
     r="112"
     cy="120.75198"
     cx="122.752"
     transform="matrix(0.26457031,0,0,0.26457031,1.3228519,1.454082)" />
  <circle
     style="display:inline;opacity:0.1;fill:#000000;fill-opacity:1;stroke:none;stroke-width:0.2645703;stroke-linecap:round;stroke-linejoin:round;stroke-miterlimit:4;stroke-dasharray:none;stroke-opacity:1;enable-background:new"
     id="path11042-7"
     cy="32.872284"
     cx="33.799385"
     r="30.161015" />
  <circle
     style="display:inline;opacity:1;fill:#bb89bd;fill-opacity:1;stroke:none;stroke-width:0.26457033;stroke-linecap:round;stroke-linejoin:round;stroke-miterlimit:4;stroke-dasharray:none;stroke-opacity:1;enable-background:new"
     id="path11042"
     r="29.631874"
     cy="32.872284"
     cx="33.799385" />
  <path
     inkscape:connector-curvature="0"
     style="display:inline;opacity:0.2;fill:#ffffff;fill-opacity:1;stroke:none;stroke-width:0.26457033;stroke-linecap:round;stroke-linejoin:round;stroke-miterlimit:4;stroke-dasharray:none;stroke-opacity:1;enable-background:new"
     d="M 33.799387,3.2404611 A 29.631875,29.631875 0 0 0 4.1675118,32.872337 H 33.799387 Z m 0,29.6318759 V 62.504212 A 29.631875,29.631875 0 0 0 63.431262,32.872337 Z"
     id="path11042-53" />
  <path
     inkscape:connector-curvature="0"
     style="display:inline;opacity:0.02000002;fill:#000000;fill-opacity:1;stroke:none;stroke-width:0.26457033;stroke-linecap:round;stroke-linejoin:round;stroke-miterlimit:4;stroke-dasharray:none;stroke-opacity:1;enable-background:new"
     d="m 54.752287,11.919437 a 29.631875,29.631875 0 0 0 -41.9058,0 l 20.9529,20.9529 z m -20.9529,20.9529 -20.9529,20.9529 a 29.631875,29.631875 0 0 0 41.9058,0 z"
     id="path11042-53-6" />
  <path
     style="display:inline;opacity:1;fill:#faf8f6;fill-opacity:1;stroke:none;stroke-width:0.26457033;stroke-linecap:round;stroke-linejoin:round;stroke-miterlimit:4;stroke-dasharray:none;stroke-opacity:1;enable-background:new"
     d="m 25.716383,4.3646501 a 29.631875,29.631875 0 0 0 -0.538049,0.182153 29.631875,29.631875 0 0 1 1.432934,-0.388233 29.631875,29.631875 0 0 0 -0.894885,0.20608 z m 2.333415,-0.537501 a 29.631875,29.631875 0 0 1 1.459703,-0.242406 29.631875,29.631875 0 0 0 -1.459703,0.242406 z m -4.269879,1.192792 a 29.631875,29.631875 0 0 0 -1.385568,0.529078 29.631875,29.631875 0 0 1 1.385568,-0.529078 z m 7.201503,-1.62203 a 29.631875,29.631875 0 0 1 1.470699,-0.09556 29.631875,29.631875 0 0 0 -1.470699,0.09556 z M 21.051754,6.158596 A 29.631875,29.631875 0 0 0 19.71991,6.826278 29.631875,29.631875 0 0 1 21.051754,6.158596 Z M 33.937932,3.2631921 a 29.631875,29.631875 0 0 1 1.477831,0.05285 29.631875,29.631875 0 0 0 -1.477831,-0.05285 z M 18.451163,7.563719 a 29.631875,29.631875 0 0 0 -1.26009,0.797712 29.631875,29.631875 0 0 1 1.26009,-0.797712 z M 36.88864,3.4242591 a 29.631875,29.631875 0 0 1 1.469153,0.200155 29.631875,29.631875 0 0 0 -1.469153,-0.200155 z M 16.000995,9.2227692 A 29.631875,29.631875 0 0 0 14.826697,10.143005 29.631875,29.631875 0 0 1 16.000995,9.2227692 Z M 39.818362,3.8803661 a 29.631875,29.631875 0 0 1 1.431579,0.343431 29.631875,29.631875 0 0 0 -1.431579,-0.343431 z M 13.301851,11.497943 a 29.631875,29.631875 0 0 0 -0.336047,0.313125 29.631875,29.631875 0 0 1 0.336047,-0.313125 z m -0.443389,0.429622 A 29.631875,29.631875 0 0 0 8.1409028,18.056091 L 33.802649,32.871908 Z m 20.944187,20.944343 20.944188,20.944341 a 29.631875,29.631875 0 0 0 4.717558,-6.128525 z M 42.681626,4.6255101 a 29.631875,29.631875 0 0 1 1.393106,0.485341 29.631875,29.631875 0 0 0 -1.393106,-0.485341 z m 2.773996,1.026918 A 29.631875,29.631875 0 0 1 46.800195,6.278095 29.631875,29.631875 0 0 0 45.455622,5.6524281 Z m 2.659249,1.2994679 a 29.631875,29.631875 0 0 1 0.486056,0.2886421 l 0.01754,-0.03038 a 29.631875,29.631875 0 0 0 -0.503593,-0.258264 z m -29.1105,51.55138 -0.01754,0.03038 a 29.631875,29.631875 0 0 0 0.503595,0.258263 29.631875,29.631875 0 0 1 -0.486056,-0.288641 z m 1.800732,0.962441 a 29.631875,29.631875 0 0 0 1.344576,0.625669 29.631875,29.631875 0 0 1 -1.344576,-0.625669 z m 2.725466,1.167244 a 29.631875,29.631875 0 0 0 1.393103,0.485341 29.631875,29.631875 0 0 1 -1.393103,-0.485341 z m 31.108926,-6.700216 a 29.631875,29.631875 0 0 1 -0.336049,0.313124 29.631875,29.631875 0 0 0 0.336049,-0.313124 z m -28.284138,7.587273 a 29.631875,29.631875 0 0 0 1.43158,0.343431 29.631875,29.631875 0 0 1 -1.43158,-0.343431 z M 52.7786,55.60081 A 29.631875,29.631875 0 0 1 51.604305,56.521044 29.631875,29.631875 0 0 0 52.7786,55.60081 Z M 29.247505,62.1194 a 29.631875,29.631875 0 0 0 1.469154,0.200155 29.631875,29.631875 0 0 1 -1.469154,-0.200155 z m 21.16672,-4.737018 a 29.631875,29.631875 0 0 1 -1.26009,0.797714 29.631875,29.631875 0 0 0 1.26009,-0.797714 z m -18.22469,5.045385 a 29.631875,29.631875 0 0 0 1.477831,0.05286 29.631875,29.631875 0 0 1 -1.477831,-0.05286 z m 15.695853,-3.510232 a 29.631875,29.631875 0 0 1 -1.331844,0.667683 29.631875,29.631875 0 0 0 1.331844,-0.667683 z m -12.732211,3.523929 a 29.631875,29.631875 0 0 0 1.470699,-0.09556 29.631875,29.631875 0 0 1 -1.470699,0.09556 z m 10.05777,-2.246671 a 29.631875,29.631875 0 0 1 -1.385567,0.529077 29.631875,29.631875 0 0 0 1.385567,-0.529077 z m -7.11515,1.964276 a 29.631875,29.631875 0 0 0 1.459703,-0.242404 29.631875,29.631875 0 0 1 -1.459703,0.242404 z m 4.331167,-0.962057 a 29.631875,29.631875 0 0 1 -1.432934,0.388231 29.631875,29.631875 0 0 0 1.432934,-0.388231 z"
     id="path11042-53-6-2"
     inkscape:connector-curvature="0" />
  <circle
     style="display:inline;opacity:1;fill:#aea795;fill-opacity:1;stroke:none;stroke-width:0.73028344;stroke-linecap:round;stroke-linejoin:round;stroke-miterlimit:4;stroke-dasharray:none;stroke-dashoffset:0;stroke-opacity:1;enable-background:new"
     id="path7147"
     cx="33.799385"
     cy="-32.872288"
     transform="scale(1,-1)"
     r="10.582812" />
  <circle
     style="display:inline;opacity:1;fill:#faf8f6;fill-opacity:1;stroke:none;stroke-width:0.68032366;stroke-linecap:round;stroke-linejoin:round;stroke-miterlimit:4;stroke-dasharray:none;stroke-dashoffset:0;stroke-opacity:1;enable-background:new"
     id="path7164"
     cx="33.799385"
     cy="32.872288"
     r="9.5245314" />
  <circle
     style="display:inline;opacity:1;fill:#4d4d4d;fill-opacity:1;stroke:none;stroke-width:0.92599607;stroke-linecap:round;stroke-linejoin:round;stroke-miterlimit:4;stroke-dasharray:none;stroke-dashoffset:0;stroke-opacity:1;enable-background:new"
     id="path7166"
     cx="33.799385"
     cy="32.872288"
     r="3.7039843" />
  <path
     style="display:inline;opacity:0.3;fill:#ffffff;fill-opacity:1;stroke:none;stroke-width:0.26457033;stroke-linecap:round;stroke-linejoin:round;stroke-miterlimit:4;stroke-dasharray:none;stroke-opacity:1;enable-background:new"
     d="M 33.799387,3.2404601 A 29.631875,29.631875 0 0 0 4.1675118,32.872334 29.631875,29.631875 0 0 0 4.1783648,33.18186 29.631875,29.631875 0 0 1 33.799387,3.7696001 29.631875,29.631875 0 0 1 63.420409,33.091949 29.631875,29.631875 0 0 0 63.431257,32.872334 29.631875,29.631875 0 0 0 33.799382,3.2404601 Z"
     id="path11042-1"
     inkscape:connector-curvature="0" />
  <path
     inkscape:connector-curvature="0"
     style="display:inline;opacity:0.2;fill:#000000;fill-opacity:1;stroke:none;stroke-width:0.26457033;stroke-linecap:round;stroke-linejoin:round;stroke-miterlimit:4;stroke-dasharray:none;stroke-opacity:1;enable-background:new"
     d="M 33.799387,62.504209 A 29.631875,29.631875 0 0 1 4.1675118,32.872334 29.631875,29.631875 0 0 1 4.1783648,32.562808 29.631875,29.631875 0 0 0 33.799387,61.975068 29.631875,29.631875 0 0 0 63.420409,32.65272 a 29.631875,29.631875 0 0 1 0.01085,0.219614 29.631875,29.631875 0 0 1 -29.631875,29.631875 z"
     id="path11042-1-7" />
  <g
     style="enable-background:new"
     transform="matrix(0,0.28681636,-0.28681636,0,40.938694,1.1174767)"
     id="g136">
    <path
       inkscape:connector-curvature="0"
       d="m 140.01675,6.5100464 c 1.24777,0.623882 24.33137,23.7074866 24.33137,23.7074866 l 2.18358,2.807468 c 0,0 -9.35822,13.725379 -10.91792,12.477625 -1.55971,-1.247764 -30.88211,-22.147783 -30.88211,-22.147783 -4.24653,-8.481983 7.30245,-20.7103926 15.28508,-16.8447966 z"
       style="opacity:0.2"
       id="path126" />
    <path
       inkscape:connector-curvature="0"
       d="m 13.69356,-89.725165 c 13.986231,8.31101 39.421867,24.17501 39.421867,24.17501 0,0 26.156865,15.820162 34.405812,21.011233 8.24894,5.191072 9.392093,5.644702 16.303161,9.824141 6.91104,4.17944 15.28097,10.805214 15.28097,10.805214 0,0 8.47882,7.468247 11.0763,10.551886 2.59747,3.083637 4.83475,6.0007954 6.47247,9.1693334 1.63773,3.168537 3.72226,9.453223 3.72226,9.453223 L 129.70774,23.698239 c 0,0 -3.83161,1.076365 -8.64492,0.415522 -4.81331,-0.660853 -11.83141,-4.060453 -16.73831,-6.695895 C 99.417598,14.782424 97.079173,13.29205 91.667009,8.741636 86.254845,4.1912214 80.97554,-1.5173286 72.336532,-10.335519 68.347233,-14.407557 61.361919,-22.407528 54.587689,-29.634185 46.692006,-38.057194 39.219813,-45.49802 39.219813,-45.49802 c 0,0 -21.80684,-22.440785 -32.568011,-34.710535 -3.923693,-5.96336 1.608841,-11.4868 7.041758,-9.51661 z"
       style="opacity:0.2;fill:#180000"
       id="path128" />
    <path
       inkscape:connector-curvature="0"
       style="fill:url(#linearGradient1022)"
       d="m 11.774242,-87.805843 c 13.98623,8.31101 39.421866,24.17501 39.421866,24.17501 0,0 26.156866,15.82016 34.405813,21.011229 8.248941,5.191072 9.392088,5.644702 16.303149,9.824142 6.91105,4.179439 15.28097,10.805212 15.28097,10.805212 0,0 8.47883,7.468248 11.0763,10.551887 2.59748,3.0836374 4.83475,6.0007954 6.47248,9.1693324 1.63773,3.16853798 3.72225,9.453222 3.72225,9.453222 L 127.78841,25.617556 c 0,0 -3.83161,1.076365 -8.64492,0.415521 -4.81331,-0.660853 -11.8314,-4.060452 -16.73831,-6.695894 C 97.498281,16.701741 95.159855,15.211367 89.747691,10.660952 84.335527,6.1105384 79.056222,0.40198838 70.417214,-8.4162016 66.427914,-12.48824 59.4426,-20.488211 52.668372,-27.714868 44.772688,-36.137877 37.300496,-43.578703 37.300496,-43.578703 c 0,0 -21.806841,-22.44078 -32.568012,-34.71054 -3.923693,-5.96335 1.608841,-11.4868 7.041758,-9.5166 z"
       id="path130" />
    <path
       inkscape:connector-curvature="0"
       style="fill:#bfbebf"
       d="m 138.45707,7.1841914 c 1.24777,0.623891 24.33137,23.7074866 24.33137,23.7074866 l 2.18359,2.807468 c 0,0 -9.35823,13.725389 -10.91792,12.477625 -1.55971,-1.247763 -30.88212,-22.147782 -30.88212,-22.147782 -4.24654,-8.481975 7.30246,-20.7103906 15.28508,-16.8447976 z"
       id="path132" />
    <path
       inkscape:connector-curvature="0"
       style="fill:#985e05"
       d="m 165.96406,84.864909 c 2.55754,-5.013192 1.57537,-10.530626 -3.07275,-17.261554 -8.66075,-12.541587 -10.40618,-16.034168 -10.71247,-21.435541 -0.30193,-5.324303 3.88562,-11.938958 9.31015,-14.706346 10.80072,-5.510119 24.6371,7.464922 24.6371,23.103419 0,11.605792 -6.2077,22.195168 -18.29439,31.207388 -3.1568,2.353803 -3.45697,2.207966 -1.86764,-0.907366 z"
       id="path134" />
  </g>
</svg>
